!!!COM: Palestrina, Giovanni Perluigi da
!!!OPR: Missa Sacerdos et pontifex
!!!OTL: Sanctus
**kern	**kern	**kern	**kern	**kern
*Ibass	*Itenor	*Itenor	*Icalto	*Icant
!Bassus	!Tenor 2	!Tenor 1	!Altus	!Cantus
*clefF4	*clefGv2	*clefGv2	*clefG2	*clefG2
*k[b-]	*k[b-]	*k[b-]	*k[b-]	*k[b-]
*G:dor	*G:dor	*G:dor	*G:dor	*G:dor
*M4/2	*M4/2	*M4/2	*M4/2	*M4/2
=1	=1	=1	=1	=1
0r	0r	0r	0g	0r
=2	=2	=2	=2	=2
0r	0r	0r	1g	0r
.	.	.	1f#	.
=3	=3	=3	=3	=3
0r	0r	0r	2.g	0dd
.	.	.	4a	.
.	.	.	4b-	.
.	.	.	4cc	.
.	.	.	[2b-	.
=4	=4	=4	=4	=4
0r	0r	0r	2b-]	1dd
.	.	.	4a	.
.	.	.	4g	.
.	.	.	1a	1cc#
=5	=5	=5	=5	=5
0r	0r	0d	2.f	2.dd
.	.	.	4g	4ee
.	.	.	2a	2ff
.	.	.	2b-	[2gg
=6	=6	=6	=6	=6
0r	0r	1d	1.a	2gg]
.	.	.	.	2ff
.	.	1c#	.	1ee
.	.	.	2e	.
=7	=7	=7	=7	=7
0r	0r	2.d	2.f	2dd
.	.	.	.	2.ff
.	.	4e	4g	.
.	.	2f	2a	.
.	.	.	.	4ee
.	.	[2g	2b-	4dd
.	.	.	.	4cc
=8	=8	=8	=8	=8
0r	0r	2g]	2g	2b-
.	.	2f	2.a	2.cc
.	.	1e-	.	.
.	.	.	4g	4b-
.	.	.	[2g	2g
=9	=9	=9	=9	=9
1r	0r	1.d	2g]	1a
.	.	.	2f#	.
[1G	.	.	[1g	2.b-
.	.	2e-	.	.
.	.	.	.	4a
=10	=10	=10	=10	=10
1G]	0r	2d	1g]	4b-
.	.	.	.	4cc
.	.	2.B-	.	2.dd
1G	.	.	2.d	.
.	.	4c	.	4cc
.	.	4d	.	[2b-
.	.	4B-	4e	.
=11	=11	=11	=11	=11
1F	1r	1c	1f	2b-]
.	.	.	.	2a
2.G	[1d	2.B-	2r	2.b-
.	.	.	[2b-	.
4A	.	4A	.	4cc
=12	=12	=12	=12	=12
4B-	1d]	1G	4b-]	0dd
4c	.	.	4a	.
1B-	.	.	2g	.
.	1d	1r	2f	.
4A	.	.	[2g	.
4G	.	.	.	.
=13	=13	=13	=13	=13
1A	1c	2r	2g]	1r
.	.	1c	2f#	.
1G	2.d	.	1g	2r
.	.	2B-	.	2dd
.	4e	.	.	.
=14	=14	=14	=14	=14
1r	2f	2A	0r	2cc
.	1g	2G	.	2b-
2r	.	1d	.	[1a
[2d	2f	.	.	.
=15	=15	=15	=15	=15
2d]	1e	2A	2r	1a]
2c	.	2e	1a	.
1B-	1d	2f	.	2r
.	.	2g	2g	[2dd
=16	=16	=16	=16	=16
1A	1r	1a	2f	2dd]
.	.	.	2e	2cc
2B-	2r	1f	[1d	2b-
2F	[2a	.	.	2a
=17	=17	=17	=17	=17
1G	2a]	2r	1d]	1b-
.	2g	1d	.	.
1A	2f	.	1r	1a
.	2e	2c	.	.
=18	=18	=18	=18	=18
1D	1.f	2B-	1.d	2r
.	.	2A	.	1dd
2BB-	.	2B-	.	.
2C	2e	2G	2e	[2cc
=19	=19	=19	=19	=19
2.D	1d	0F	0f	4cc]
.	.	.	.	4b-
.	.	.	.	1b-
4E	.	.	.	.
1F	1c	.	.	.
.	.	.	.	2a
=20	=20	=20	=20	=20
1BB-	2B-	2r	2d	1.dd
.	1d	1B-	2f	.
1r	.	.	2g	.
.	2e	2c	[2a	4cc
.	.	.	.	4b-
=21	=21	=21	=21	=21
0r	1f	1d	2a]	1a
.	.	.	2f	.
.	2d	2B-	2g	1r
.	2e	2c	[2a	.
=22	=22	=22	=22	=22
0r	1f	1d	2a]	1r
.	.	.	2.b-	.
.	[1g	[1e-	.	2r
.	.	.	4a	.
.	.	.	4g	[2b-
.	.	.	4f	.
=23	=23	=23	=23	=23
0r	2g]	2e-]	2g	2b-]
.	2c	2e-	2g	2cc
.	2f	1d	2a	1dd
.	[2d	.	[2f	.
=24	=24	=24	=24	=24
0r	2d]	1r	2f]	2b-
.	2e	.	2g	2cc
.	2f	2r	2a	1dd
.	[2g	2G	2b-	.
=25	=25	=25	=25	=25
0r	2g]	2c	1g	1ee-
.	2c	2c	.	.
.	4f	2B-	1b-	1dd
.	4d	.	.	.
.	[2g	2G	.	.
=26	=26	=26	=26	=26
0r	4g]	2.A	1a	[0cc
.	4f	.	.	.
.	1f	.	.	.
.	.	4B-	.	.
.	.	2c	1g	.
.	2e	2c	.	.
=27	=27	=27	=27	=27
2r	2.f	1F	2a	1cc]
1F	.	.	1a	.
.	4e	.	.	.
.	1d	1r	.	2r
2G	.	.	2g	[2dd
=28	=28	=28	=28	=28
1A	2r	0r	2e	2dd]
.	1a	.	2.f	2cc
2F	.	.	.	2a
.	.	.	4e	.
2G	2g	.	[2d	[2b-
=29	=29	=29	=29	=29
1A	2e	0r	2d]	4b-]
.	.	.	.	4a
.	2.f	.	2c	1a
1B-	.	.	1d	.
.	4e	.	.	.
.	[2d	.	.	2g
=30	=30	=30	=30	=30
1A	2d]	0r	1e	1a
.	2c#	.	.	.
1D	4d	.	4f	1a
.	4e	.	4e	.
.	4f	.	4d	.
.	8e	.	4c	.
.	8f	.	.	.
=31	=31	=31	=31	=31
1.BB-	2g	2r	1d	2.b-
.	1f	1d	.	.
.	.	.	.	4a
.	.	.	2r	1g
2C	2e	2c	[2g	.
=32	=32	=32	=32	=32
1D	1d	2A	2g]	2r
.	.	1B-	2f	1dd
2BB-	1G	.	2d	.
2C	.	4A	[2e-	2cc
.	.	4G	.	.
=33	=33	=33	=33	=33
1D	1d	1F	4e-]	2a
.	.	.	4d	.
.	.	.	1d	1b-
1E-	1r	1G	.	.
.	.	.	2c	4a
.	.	.	.	4g
=34	=34	=34	=34	=34
[0D	2r	1A	2.d	2.f
.	2.d	.	.	.
.	.	.	4e	4g
.	.	2.F	4f	2a
.	4e	.	4g	.
.	[2f	.	[2a	2a
.	.	4G	.	.
=35	=35	=35	=35	=35
0D]	4f]	2A	2a]	1dd
.	4e	.	.	.
.	4d	2B-	1g	.
.	4c	.	.	.
.	2d	1A	.	1dd
.	2d	.	2f#	.
=36	=36	=36	=36	=36
2r	2B-	1G	2g	[0dd
2G	2g	.	2b-	.
2G	2g	2r	2b-	.
2G	2g	2d	2b-	.
=37	=37	=37	=37	=37
1d	1f	2d	4a	1dd]
.	.	.	4g	.
.	.	2d	4f	.
.	.	.	4e	.
2d	2f	2a	2d	1r
2c	2e	2a	2A	.
=38	=38	=38	=38	=38
2.B-	2.d	2g	0r	2r
.	.	2.f	.	2dd
8A	8c	.	.	.
8G	8B-	.	.	.
2F	2A	.	.	2dd
.	.	4e	.	.
2G	2B-	[2d	.	2dd
=39	=39	=39	=39	=39
1E	1G	2d]	1r	1.gg
.	.	2c#	.	.
[1D	2A	1d	2r	.
.	2d	.	2a	4ff
.	.	.	.	4ee
=40	=40	=40	=40	=40
1D]	2d	1r	2a	1ff
.	2d	.	2a	.
1r	1g	2r	1b-	2dd
.	.	2G	.	4g
.	.	.	.	4a
=41	=41	=41	=41	=41
0r	2g	2G	2b-	4b-
.	.	.	.	4cc
.	2g	2G	2b-	4dd
.	.	.	.	4ee
.	2.f	4d	2.a	4ff
.	.	4e	.	4gg
.	.	4f	.	2ff
.	8e	4g	4b-	.
.	8d	.	.	.
=42	=42	=42	=42	=42
0r	2c	1a	4cc	2ee
.	.	.	4b-	.
.	2d	.	2.a	2.ff
.	1B-	2d	.	.
.	.	.	8g	4ee
.	.	.	8f	.
.	.	2d	2g	[2dd
=43	=43	=43	=43	=43
1r	1A	1e	1a	2dd]
.	.	.	.	2cc#
2r	2r	1d	2f	[1dd
[2G	[2d	.	[2b-	.
=44	=44	=44	=44	=44
2G]	2d]	0r	2b-]	1dd]
2F	2d	.	2a	.
2.G	2.d	.	2.b-	1r
4A	4c	.	4a	.
=45	=45	=45	=45	=45
2B-	2d	0r	4g	1r
.	.	.	4f	.
1c	1e-	.	2.a	.
.	.	.	.	2r
.	.	.	4g	.
2B-	2d	.	[2g	2g
=46	=46	=46	=46	=46
1A	1c	1r	2g]	2a
.	.	.	2f#	2cc
1G	1d	2r	2g	4b-
.	.	.	.	4cc
.	.	[2d	2b-	4dd
.	.	.	.	4ee
=47	=47	=47	=47	=47
1A	2r	2d]	2a	2ff
.	2.a	2c#	2a	2ee
1D	.	2.d	2.f	2.ff
.	4g	.	.	.
.	[2f	.	.	.
.	.	4e	4g	4ee
=48	=48	=48	=48	=48
0r	2f]	2f	2a	4dd
.	.	.	.	4cc
.	2c	1g	2e	2.ee
.	1d	.	[1a	.
.	.	.	.	4dd
.	.	2f	.	[2dd
=49	=49	=49	=49	=49
1r	1A	1e	1a]	2dd]
.	.	.	.	2cc#
2r	2r	1d	1f	2.dd
2D	2d	.	.	.
.	.	.	.	8cc
.	.	.	.	8b-
=50	=50	=50	=50	=50
2D	2f	2r	0r	0a
2C#	2e	1A	.	.
2.D	2.f	.	.	.
.	.	2A	.	.
4E	4e	.	.	.
=51	=51	=51	=51	=51
2F	4d	2A	0r	0r
.	4c	.	.	.
1G	1e-	1B-	.	.
2F	[2d	2A	.	.
=52	=52	=52	=52	=52
1E-	2d]	2G	2r	2r
.	2c	2G	2g	2g
1D	1d	2r	2b-	2g
.	.	2d	2a	2f#
=53	=53	=53	=53	=53
0r	0r	2G	2.b-	2.g
.	.	2.e-	.	.
.	.	.	4a	4a
.	.	.	4g	2b-
.	.	4d	4f	.
.	.	4c	[2a	[2cc
.	.	4B-	.	.
=54	=54	=54	=54	=54
1r	0r	1c	4a]	2cc]
.	.	.	4g	.
.	.	.	1g	2b-
1D	.	1d	.	1a
.	.	.	2f#	.
=55	=55	=55	=55	=55
2E-	2r	2G	0g	1g
2C	2c	2c	.	.
1G	2c	2e-	.	1r
.	2B	2d	.	.
=56	=56	=56	=56	=56
1.C	1c	2.e-	[0g	2r
.	.	.	.	2cc
.	.	4d	.	.
.	[1G	2c	.	2ee-
2G	.	2B	.	2dd
=57	=57	=57	=57	=57
0C	1G]	2c	1g_	2.ee-
.	.	2d	.	.
.	.	.	.	4dd
.	1c	1e-	1g_	1cc
=58	=58	=58	=58	=58
0G	0B	0d	0g]	0dd
==	==	==	==	==
*-	*-	*-	*-	*-
!!!CDT: 1525/^1526/-1594/2/2
!!!OCY: Italia
!!!AGN: Mass (Paraphrase)
!!!AST: renaissance, vocal
!!!ASW: Antiphon
!!!PWK: Masses, Book 7
!!!RNB: Cadence finals: C,D
!!!YOR: Le Opere Complete, v. 23, p. 82
!!!YOO: Rome, Italy: Fratelli Scalera
!!!END: 1992//
!!!EED: John Miller
!!!YEC: Copyright 2000, John Miller
!!!YEN: United States of America
!!!YEM: Rights to all derivative electronic formats reserved.
!!!YEM: Refer to licensing agreement for further details.
!!!YEM: This file must be accompanied by the licensing agreement.
!!!YEM: A copy of the licensing agreement may be found at http://www.music-cog.ohio-state.edu/HumdrumDatabases/Palestrina/license.txt
!!!EMD: converted to Humdrum by Bret Aarden
